svg/color/ethhedge.svg

<?xml version="1.0" encoding="UTF-8" ?>
<!DOCTYPE svg PUBLIC "-//W3C//DTD SVG 1.1//EN" "http://www.w3.org/Graphics/SVG/1.1/DTD/svg11.dtd">
<svg width="250pt" height="214pt" viewBox="0 0 250 214" version="1.1" xmlns="http://www.w3.org/2000/svg">
<g id="#ffffffff">
<path fill="#ffffff" opacity="1.00" d=" M 0.00 0.00 L 250.00 0.00 L 250.00 214.00 L 0.00 214.00 L 0.00 0.00 M 75.46 11.66 C 72.35 11.93 73.01 15.75 72.74 17.95 C 72.86 31.65 72.77 45.36 72.77 59.06 C 73.09 60.79 72.50 63.51 74.55 64.30 C 78.64 65.17 82.86 64.55 87.00 64.64 C 134.02 64.64 181.04 64.61 228.05 64.66 C 229.33 64.58 230.64 64.39 231.80 63.79 C 232.68 62.02 232.64 59.98 232.70 58.06 C 232.55 44.69 232.55 31.31 232.70 17.94 C 232.65 16.01 232.66 13.98 231.79 12.21 C 230.62 11.66 229.32 11.47 228.04 11.39 C 181.70 11.49 135.35 11.41 89.00 11.44 C 84.49 11.52 79.94 10.99 75.46 11.66 M 11.51 83.04 C 11.53 99.68 11.50 116.32 11.53 132.96 C 14.00 133.36 16.50 133.62 19.00 133.59 C 28.33 133.46 37.67 133.53 47.00 133.51 C 52.18 133.48 57.41 133.91 62.54 132.98 C 62.53 116.34 62.53 99.70 62.54 83.06 C 60.38 82.77 58.20 82.54 56.02 82.53 C 43.34 82.62 30.66 82.63 17.99 82.52 C 15.82 82.53 13.66 82.76 11.51 83.04 M 74.06 83.04 C 73.14 88.65 73.71 94.34 73.61 100.00 C 73.87 111.01 73.02 122.07 74.03 133.04 C 78.98 133.87 84.00 133.50 89.00 133.51 C 116.66 133.52 144.33 133.52 172.00 133.51 C 176.86 133.49 181.76 133.88 186.58 133.06 C 186.58 116.39 186.63 99.71 186.55 83.04 C 181.07 82.23 175.52 82.65 170.00 82.60 C 139.99 82.54 109.98 82.66 79.97 82.53 C 77.99 82.58 76.03 82.80 74.06 83.04 M 74.17 152.43 C 72.84 157.52 73.49 162.81 73.44 168.00 C 73.40 177.34 73.53 186.69 73.33 196.04 C 73.37 198.30 73.22 200.68 74.19 202.79 C 77.58 204.25 81.41 203.59 85.00 203.69 C 98.11 203.34 111.26 204.19 124.34 203.32 C 125.36 195.59 124.45 187.77 124.74 180.00 C 124.44 170.89 125.33 161.74 124.38 152.66 C 121.26 152.31 118.12 152.16 114.99 152.31 C 101.39 152.55 87.78 152.18 74.17 152.43 Z" />
</g>
<g id="#abebf4ff">
<path fill="#abebf4" opacity="1.00" d=" M 75.46 11.66 C 79.94 10.99 84.49 11.52 89.00 11.44 C 135.35 11.41 181.70 11.49 228.04 11.39 C 229.32 11.47 230.62 11.66 231.79 12.21 C 232.66 13.98 232.65 16.01 232.70 17.94 C 232.55 31.31 232.55 44.69 232.70 58.06 C 232.64 59.98 232.68 62.02 231.80 63.79 C 230.64 64.39 229.33 64.58 228.05 64.66 C 181.04 64.61 134.02 64.64 87.00 64.64 C 82.86 64.55 78.64 65.17 74.55 64.30 C 72.50 63.51 73.09 60.79 72.77 59.06 C 72.77 45.36 72.86 31.65 72.74 17.95 C 73.01 15.75 72.35 11.93 75.46 11.66 M 74.51 13.67 C 74.09 22.77 74.47 31.89 74.35 41.00 C 74.51 48.37 73.95 55.77 74.66 63.12 C 79.44 63.40 84.22 63.37 89.00 63.31 C 131.00 63.31 173.00 63.32 215.00 63.31 C 220.19 63.29 225.40 63.59 230.57 62.93 C 230.66 46.59 230.56 30.25 230.63 13.92 C 228.77 13.69 226.91 13.48 225.04 13.45 C 181.36 13.56 137.68 13.46 94.00 13.50 C 87.51 13.54 81.00 13.30 74.51 13.67 Z" />
<path fill="#abebf4" opacity="1.00" d=" M 74.17 152.43 C 87.78 152.18 101.39 152.55 114.99 152.31 C 118.12 152.16 121.26 152.31 124.38 152.66 C 125.33 161.74 124.44 170.89 124.74 180.00 C 124.45 187.77 125.36 195.59 124.34 203.32 C 111.26 204.19 98.11 203.34 85.00 203.69 C 81.41 203.59 77.58 204.25 74.19 202.79 C 73.22 200.68 73.37 198.30 73.33 196.04 C 73.53 186.69 73.40 177.34 73.44 168.00 C 73.49 162.81 72.84 157.52 74.17 152.43 Z" />
</g>
<g id="#02a5c2ff">
<path fill="#02a5c2" opacity="1.00" d=" M 74.51 13.67 C 81.00 13.30 87.51 13.54 94.00 13.50 C 137.68 13.46 181.36 13.56 225.04 13.45 C 226.91 13.48 228.77 13.69 230.63 13.92 C 230.56 30.25 230.66 46.59 230.57 62.93 C 225.40 63.59 220.19 63.29 215.00 63.31 C 173.00 63.32 131.00 63.31 89.00 63.31 C 84.22 63.37 79.44 63.40 74.66 63.12 C 73.95 55.77 74.51 48.37 74.35 41.00 C 74.47 31.89 74.09 22.77 74.51 13.67 Z" />
</g>
<g id="#5fcadeff">
<path fill="#5fcade" opacity="1.00" d=" M 11.51 83.04 C 13.66 82.76 15.82 82.53 17.99 82.52 C 30.66 82.63 43.34 82.62 56.02 82.53 C 58.20 82.54 60.38 82.77 62.54 83.06 C 62.53 99.70 62.53 116.34 62.54 132.98 C 57.41 133.91 52.18 133.48 47.00 133.51 C 37.67 133.53 28.33 133.46 19.00 133.59 C 16.50 133.62 14.00 133.36 11.53 132.96 C 11.50 116.32 11.53 99.68 11.51 83.04 Z" />
<path fill="#5fcade" opacity="1.00" d=" M 74.06 83.04 C 76.03 82.80 77.99 82.58 79.97 82.53 C 109.98 82.66 139.99 82.54 170.00 82.60 C 175.52 82.65 181.07 82.23 186.55 83.04 C 186.63 99.71 186.58 116.39 186.58 133.06 C 181.76 133.88 176.86 133.49 172.00 133.51 C 144.33 133.52 116.66 133.52 89.00 133.51 C 84.00 133.50 78.98 133.87 74.03 133.04 C 73.02 122.07 73.87 111.01 73.61 100.00 C 73.71 94.34 73.14 88.65 74.06 83.04 Z" />
</g>
</svg>

<?xml version="1.0" encoding="utf-8"?>
<!-- Generator: Adobe Illustrator 26.0.3, SVG Export Plug-In . SVG Version: 6.00 Build 0)  -->
<svg version="1.1" id="Layer_1" xmlns="http://www.w3.org/2000/svg" xmlns:xlink="http://www.w3.org/1999/xlink" x="0px" y="0px"
	 viewBox="0 0 250 214" style="enable-background:new 0 0 250 214;" xml:space="preserve">
<style type="text/css">
	.st0{fill:#ABEBF4;}
	.st1{fill:#02A5C2;}
	.st2{fill:#5FCADE;}
</style>
<g id="_x23_abebf4ff">
	<path class="st0" d="M75.5,11.7c4.5-0.7,9-0.1,13.5-0.2c46.4,0,92.7,0.1,139,0c1.3,0.1,2.6,0.3,3.8,0.8c0.9,1.8,0.9,3.8,0.9,5.7
		c-0.1,13.4-0.1,26.7,0,40.1c-0.1,1.9,0,4-0.9,5.7c-1.2,0.6-2.5,0.8-3.8,0.9c-47-0.1-94,0-141.1,0c-4.1-0.1-8.4,0.5-12.4-0.3
		c-2.1-0.8-1.5-3.5-1.8-5.2c0-13.7,0.1-27.4,0-41.1C73,15.8,72.3,11.9,75.5,11.7 M74.5,13.7c-0.4,9.1,0,18.2-0.2,27.3
		c0.2,7.4-0.4,14.8,0.3,22.1c4.8,0.3,9.6,0.2,14.3,0.2c42,0,84,0,126,0c5.2,0,10.4,0.3,15.6-0.4c0.1-16.3,0-32.7,0.1-49
		c-1.9-0.2-3.7-0.4-5.6-0.5c-43.7,0.1-87.4,0-131,0.1C87.5,13.5,81,13.3,74.5,13.7z"/>
	<path class="st0" d="M74.2,152.4c13.6-0.2,27.2,0.1,40.8-0.1c3.1-0.1,6.3,0,9.4,0.4c1,9.1,0.1,18.2,0.4,27.3
		c-0.3,7.8,0.6,15.6-0.4,23.3c-13.1,0.9-26.2,0-39.3,0.4c-3.6-0.1-7.4,0.6-10.8-0.9c-1-2.1-0.8-4.5-0.9-6.8c0.2-9.3,0.1-18.7,0.1-28
		C73.5,162.8,72.8,157.5,74.2,152.4z"/>
</g>
<g id="_x23_02a5c2ff">
	<path class="st1" d="M74.5,13.7c6.5-0.4,13-0.1,19.5-0.2c43.7,0,87.4,0.1,131-0.1c1.9,0,3.7,0.2,5.6,0.5c-0.1,16.3,0,32.7-0.1,49
		c-5.2,0.7-10.4,0.4-15.6,0.4c-42,0-84,0-126,0c-4.8,0.1-9.6,0.1-14.3-0.2c-0.7-7.3-0.2-14.8-0.3-22.1
		C74.5,31.9,74.1,22.8,74.5,13.7z"/>
</g>
<g id="_x23_5fcadeff">
	<path class="st2" d="M11.5,83c2.1-0.3,4.3-0.5,6.5-0.5c12.7,0.1,25.4,0.1,38,0c2.2,0,4.4,0.2,6.5,0.5c0,16.6,0,33.3,0,49.9
		c-5.1,0.9-10.4,0.5-15.5,0.5c-9.3,0-18.7,0-28,0.1c-2.5,0-5-0.2-7.5-0.6C11.5,116.3,11.5,99.7,11.5,83z"/>
	<path class="st2" d="M74.1,83c2-0.2,3.9-0.5,5.9-0.5c30,0.1,60,0,90,0.1c5.5,0.1,11.1-0.4,16.6,0.4c0.1,16.7,0,33.3,0,50
		c-4.8,0.8-9.7,0.4-14.6,0.4c-27.7,0-55.3,0-83,0c-5,0-10,0.4-15-0.5c-1-11-0.2-22-0.4-33C73.7,94.3,73.1,88.7,74.1,83z"/>
</g>
</svg>
